X:1
T:Title
%%score { ( 1 3 ) | 2 }
L:1/8
M:3/4
K:G
V:1 treble nm="Grand Piano"
V:3 treble 
V:2 treble 
V:1
 z2 z[Q:1/4=88] D DG | B3 [DGB] [CDA][B,DG] | [B,D]3 D GB | d3 d GB |[M:3/8] [FA]3 | [FA][FA][FB] | %6
[M:3/4] [Fc]3 [A,DF] [DG][DFA] | [DGB]3 [DGB] [DGB][Gd] | [Ec][A,EA] [B,DG]2 [CDF]2 | %9
[M:3/8] [B,DG]3 | ddd |[M:3/4] d3 d ^cd | B3 [DGB] [DGB][DGB] | [DGB]3 [DGB] [^CG_B][DG=B] | %14
[M:3/8] [B,DG]3 | DE[CEG] |[M:4/4] [Ec]>[Ec] [Ec]2- [Ec]EDG | B>B B2- Bdd[=Fd] |[M:3/4] z2 z2 A2 | %19
[M:3/8] [B,DG]3 |] %20
V:2
 z2 z [G,B,] [G,B,][G,B,D] | [G,DG]3[K:bass] G,, G,,G,, | G,,3 [G,B,][K:treble] [G,B,D][G,DG] | %3
 [G,B,G]3 [G,B,G] [B,D][G,DG] |[M:3/8][K:bass] [D,D]3 | [D,D][D,C][D,B,] | %6
[M:3/4] [D,A,]3 C, B,,D, | G,3 G, G,[B,,G,] | [C,G,]C, D,2 D,2 |[M:3/8] G,,3 | %10
 [G,B,G][G,B,G][G,B,G] |[M:3/4] [G,B,G]3 [G,B,G] [G,_B,G][G,=B,G] | [G,DG]3[K:bass] G,, G,,G,, | %13
 G,,3 G,, G,,G,, |[M:3/8] G,,3 | B,CC, |[M:4/4] [C,G,]>[C,G,] [C,G,]2- [C,G,][K:treble]CB,[G,B,D] | %17
 [G,DG]>[G,DG] [G,DG]2- [G,DG][G,B,=F][G,B,F][K:bass][B,,G,] | %18
[M:3/4] [C,G,]>[C,G,] [D,G,D]2 .[D,F,D]2 |[M:3/8] G,,3 |] %20
V:3
 x6 | x6 | x6 | x6 |[M:3/8] x3 | x3 |[M:3/4] x6 | x6 | x6 |[M:3/8] x3 | x3 |[M:3/4] x6 | x6 | x6 | %14
[M:3/8] x3 | x3 |[M:4/4] x8 | x8 |[M:3/4] [Ed]>[Ec] B2 z C |[M:3/8] x3 |] %20

